Sources/FrostedUI/Resources/Icons.xcassets/pinTilted12.imageset/pin-tilted-12.svg

<svg width="12" height="12" viewBox="0 0 12 12" fill="none" xmlns="http://www.w3.org/2000/svg" data-fui-icon="true">
  <path
    d="M6.37769 1.36829C7.0611 0.684869 8.16985 0.684869 8.85327 1.36829L10.6208 3.13586C11.3041 3.81928 11.3042 4.9271 10.6208 5.61047L8.91089 7.32043C8.85344 7.37804 8.81246 7.45049 8.79272 7.52942L8.24097 9.73547C7.91106 11.0551 6.26728 11.5107 5.30542 10.549L3.90308 9.14563L2.31226 10.7374C2.01943 11.03 1.54455 11.03 1.25171 10.7374C0.958816 10.4445 0.958816 9.9688 1.25171 9.6759L2.84253 8.08508L1.44019 6.68274C0.478456 5.72092 0.933185 4.07719 2.25269 3.74719L4.45874 3.19543C4.53775 3.17568 4.61107 3.13481 4.6687 3.07727L6.37769 1.36829ZM7.79272 2.42883C7.6951 2.33121 7.53684 2.33123 7.43921 2.42883L5.72925 4.13782C5.47938 4.3876 5.16576 4.56482 4.823 4.65051L2.61694 5.20227C2.42845 5.24939 2.36341 5.48478 2.50073 5.62219L6.36597 9.48743C6.50327 9.62473 6.73851 9.56038 6.78589 9.37219L7.33765 7.16516C7.42335 6.8226 7.60072 6.50965 7.85034 6.25989L9.5603 4.54993C9.65785 4.45234 9.65778 4.29404 9.5603 4.19641L7.79272 2.42883Z"
    fill="currentColor"
  />
</svg>

<svg xmlns="http://www.w3.org/2000/svg" width="12" height="12" fill="none" data-fui-icon="true" viewBox="0 0 12 12"><path fill="currentColor" d="M6.378 1.368a1.75 1.75 0 0 1 2.475 0l1.768 1.768a1.75 1.75 0 0 1 0 2.474L8.91 7.32a.45.45 0 0 0-.118.21L8.24 9.734c-.33 1.32-1.974 1.776-2.936.814L3.903 9.146l-1.59 1.591a.75.75 0 0 1-1.061-1.061l1.59-1.59L1.44 6.682c-.962-.962-.507-2.606.813-2.936l2.206-.552a.45.45 0 0 0 .21-.118zm1.415 1.06a.25.25 0 0 0-.354 0l-1.71 1.71c-.25.25-.563.427-.906.513l-2.206.551a.25.25 0 0 0-.116.42l3.865 3.865a.25.25 0 0 0 .42-.115l.552-2.207a1.95 1.95 0 0 1 .512-.905l1.71-1.71a.25.25 0 0 0 0-.354z"/></svg>
